X: 1240
T: Kaçtım Bırakıp
C: Kirkor Ciğercioğlu
O: Turkey
F: http://compmusic.upf.edu/node/140
N: segah--sarki--senginsemai--kactim_birakip--kirkor_cigercioglu
N: makam= segah
N: form= sarki
N: usul= senginsemai = 6/4
M: 6/4
L: 1/16
K: C _1/4B _1/4e ^f 
Q: 1/4=60
%%MIDI tuningsystem comma53
G4 B4 cdcB B^AGA B8  | c2Bc d2e2 d2cB dcB^A G4 dcB=A  | 
w:   |   | 
B2c2 d2e2 =f2e2 d2c2 Bfed d8 GcBA BcBc d8 d3e  | 
w:   | 
=f/e/f/g/fe d4 efga g2f2 e2d2 d2f2  | \
w:   | 
e3d d/c/d/e/dc c/B/c/d/cB BABc BAG2 c6B2 c2B2 =f2ed dc2d dccB B8 GcBA BcBc d8 G4  | 
w:   | 
B4 cdcB B^AGA B8 c2Bc  | d2e2 d2cB dcB^A G4 dcB=A B2c2  | 
w:   |   | 
d2e2 =f2e2 d2c2 Bfed d8  | GcBA BcBc d8 d3e =f/e/f/g/fe  | 
w:   |   | 
d4 e=fga g2f2 e2d2 d2f2 e3d  | d/c/d/e/dc c/B/c/d/cB BABc BAG2 c6B2  | 
w:   |   | 
c2B2 =f2ed dc2d dccB B8  | abag fefa g3a gfg2 gf^ef agfe  | 
w:   |   | 
d4 ^e2f2 g4 fef_1/4e fgag feed  | \
w:   | 
dccB B^AB3gfa g2g6 f2g2  | 
w:   | 
f2c'2 baa3gag gffg fede d^cB^A  | \
w:   | 
Bd^cB ^AGF3gfg a2g3aa4gf  | 
w:   | 
edef gag4f2 e2d3e=f3ee3ddc dedc B^AB4dc B=AB2 c2d2  | 
w:   | 
e2=f2 e2d2 c2Bf edd8Gc  | BABc Bcd4z4d3e=f/e/f/g/ fed4ef gag2 f2e2 d2d2 f2e3dd/c/d/e/  | 
w:   |   | 
dcc/B/c/d/ cBBA BcBA G2c6 B2c2  | \
w:   | 
B2=f2 eddc2ddc cBB8Gc  | 
w:   | 
BABc Bcd8G4B4cd  | cBB^A GAB8c2 Bcd2 e2d2  | 
w:   |   | 
cBdc B^AG4dc B=AB2 c2d2 e2=f2  | e2d2 c2B=f edd8Gc BABc  | 
w:   |   | 
Bcd8d3e=f/e/f/g/ fed4ef  | gag2 =f2e2 d2d2 f2e3dd/c/d/e/ dcc/B/c/d/  | 
w:   |   | 
cBBA BcBA G2c6 B2c2 B2=f2  | eddc2ddc cBB8ab agfe  | 
w:   |   | 
fag3agf g2gf ^efag fed4e2  | f2g4f^e f_1/4efg agfe eddc cBB^A  | 
w:   |   | 
B3g fag2 g6f2 g2f2 c'2ba  | a3g aggf fgfe ded^c B^ABd cBAG  | 
w:   |   | 
F3g fga2 g3a a4 gfed efga  | g4 f2e2 d3e =f3e e3d dcde  | 
w:   |   | 
dcB^A B4 dcB=A B2c2 d2e2 =f2e2  | \
w:   | 
d2c2 B=fed d8 GcBA BcBc  | 
w:   | 
d4 z4 B6AG c2Bc d2cB  | A6(3def g6f^e fefg fede  | 
w:   |   | 
f4 z4 e3f g2a2 g2=f2 e2d2  | dedc BAG2 agg=f feed d3c dcB^A  | 
w:   |   | 
B4 z4 |
w:   | 


